assets/Robot/Flat/robot_flat.svg

<svg width="32" height="32" viewBox="0 0 32 32" fill="none" xmlns="http://www.w3.org/2000/svg">
<path d="M5 3.5C5 4.15311 4.5826 4.70873 4 4.91465V12L6.16075 17.4867L4 23C2.9 23 2 22.1008 2 21.0018V13.9982C2 13.2625 2.40334 12.6163 3 12.2695V4.91465C2.4174 4.70873 2 4.15311 2 3.5C2 2.67157 2.67157 2 3.5 2C4.32843 2 5 2.67157 5 3.5Z" fill="#F8312F"/>
<path d="M30.0499 3.55C30.0499 4.23107 29.6107 4.80955 29 5.01757V12.1998C29.5967 12.5469 30 13.1937 30 13.9301V20.9401C30 22.0401 29.1 22.9401 28 22.9401L25.0595 17.2609L28 11.9301L28 5.0176C27.3893 4.80961 26.95 4.23111 26.95 3.55C26.95 2.69396 27.6439 2 28.5 2C29.356 2 30.0499 2.69396 30.0499 3.55Z" fill="#F8312F"/>
<path d="M11 4.5C11 3.67157 11.6716 3 12.5 3H19.5C20.3284 3 21 3.67157 21 4.5C21 5.17932 20.5484 5.75317 19.9291 5.93774C19.6526 6.02012 19.3595 6.04161 19.0829 6.12355L16.0299 7.02792L12.9108 6.11964C12.6383 6.04028 12.3501 6.01951 12.0777 5.93974C11.4549 5.75736 11 5.1818 11 4.5Z" fill="#FFB02E"/>
<path d="M22.05 30H9.95C6.66 30 4 27.34 4 24.05V12.03C4 8.7 6.7 6 10.03 6H21.98C25.3 6 28 8.7 28 12.03V24.06C28 27.34 25.34 30 22.05 30Z" fill="#CDC4D6"/>
<path d="M9.24738 18.5H22.7526C25.0822 18.5 27 16.581 27 14.25C27 11.909 25.0922 10 22.7526 10H9.24738C6.9078 10 5 11.909 5 14.25C5 16.591 6.9078 18.5 9.24738 18.5Z" fill="#212121"/>
<path d="M13.4718 26H18.5282C19.3392 26 20 25.3265 20 24.5C20 23.6735 19.3392 23 18.5282 23H13.4718C12.6608 23 12 23.6735 12 24.5C12 25.3265 12.6608 26 13.4718 26Z" fill="#212121"/>
<path d="M10.25 12C9.55964 12 9 12.5596 9 13.25V15.75C9 16.4404 9.55964 17 10.25 17C10.9404 17 11.5 16.4404 11.5 15.75V13.25C11.5 12.5596 10.9404 12 10.25 12Z" fill="#00A6ED"/>
<path d="M21.75 12C21.0596 12 20.5 12.5596 20.5 13.25V15.75C20.5 16.4404 21.0596 17 21.75 17C22.4404 17 23 16.4404 23 15.75V13.25C23 12.5596 22.4404 12 21.75 12Z" fill="#00A6ED"/>
</svg>

<svg xmlns="http://www.w3.org/2000/svg" width="32" height="32" fill="none"><path fill="#F8312F" d="M5 3.5a1.5 1.5 0 0 1-1 1.415V12l2.16 5.487L4 23c-1.1 0-2-.9-2-1.998v-7.004c0-.736.403-1.382 1-1.728V4.915A1.5 1.5 0 1 1 5 3.5ZM30.05 3.55c0 .681-.44 1.26-1.05 1.468V12.2c.597.347 1 .994 1 1.73v7.01c0 1.1-.9 2-2 2l-2.94-5.68L28 11.93V5.018a1.55 1.55 0 1 1 2.05-1.468Z"/><path fill="#FFB02E" d="M11 4.5A1.5 1.5 0 0 1 12.5 3h7a1.5 1.5 0 0 1 .43 2.938c-.277.082-.57.104-.847.186l-3.053.904-3.12-.908c-.272-.08-.56-.1-.832-.18A1.5 1.5 0 0 1 11 4.5Z"/><path fill="#CDC4D6" d="M22.05 30H9.95C6.66 30 4 27.34 4 24.05V12.03C4 8.7 6.7 6 10.03 6h11.95C25.3 6 28 8.7 28 12.03v12.03c0 3.28-2.66 5.94-5.95 5.94Z"/><path fill="#212121" d="M9.247 18.5h13.506c2.33 0 4.247-1.919 4.247-4.25A4.257 4.257 0 0 0 22.753 10H9.247A4.257 4.257 0 0 0 5 14.25a4.257 4.257 0 0 0 4.247 4.25ZM13.472 26h5.056C19.34 26 20 25.326 20 24.5s-.66-1.5-1.472-1.5h-5.056C12.66 23 12 23.674 12 24.5s.66 1.5 1.472 1.5Z"/><path fill="#00A6ED" d="M10.25 12C9.56 12 9 12.56 9 13.25v2.5a1.25 1.25 0 1 0 2.5 0v-2.5c0-.69-.56-1.25-1.25-1.25ZM21.75 12c-.69 0-1.25.56-1.25 1.25v2.5a1.25 1.25 0 1 0 2.5 0v-2.5c0-.69-.56-1.25-1.25-1.25Z"/></svg>
